!!!SOCIAL_FUNCTION:	songs to insure success
!!!PDT:	1909
!!!OTL: No_75_Love-charm_Song.krn
!!!REG: Great_Lakes
!!!LANG: Non-Tone
!!!LING_GROUP: Algonquin
**kern
*staff1
=1-
*clefG2
*k[b-]
*M3/4
8.cc\L
16cc\Jk
8.cc\L
16cc\Jk
8cc/L
16a/L
16g/JJ
=2
12cc\L
12cc\
24cc\L
24cc\JJ
4cc\
8.cc\L
16cc\Jk
=3||
*M2/4
8.a/L
16a/Jk
12g/L
12a/
12g/J
=4
4f/
8d/L
16f/L
16f/JJ
=5||
*M3/4
8f/L
16f/L
16f/JJ
4f/
8.f/L
16f/Jk
=6||
*M2/4
8.c/L
16c/Jk
8.c/L
16c/Jk
=7
4c/
8A/L
16c/L
16c/JJ
=8||
*M3/4
8c/L
16c/L
16c/JJ
4c/
8.c/L
16c/Jk
=9||
*M2/4
8.c/L
16c/Jk
8.c/L
16A/Jk
=10
4A/
4A/
=11
4A/
4A/
=12
4A/
8.A/L
16cc/Jk
=13
8.f/L
16f/Jk
8.c/L
16c/Jk
=14
4c/
8A/L
16c/L
16c/JJ
=15||
*M3/4
8c/L
16c/L
16c/JJ
4c/
8.c/L
16c/Jk
=16||
*M2/4
8.c/L
16c/Jk
8.c/L
16A/Jk
=17
4A/
4A/
=18
4A/
4A/
==
*-
